!!!COM: Chopin, Frederic
!!!CDT: 1810///-1849///
!!!OTL: Prelude in F Minor, Op. 28, No. 18
!!!OPS: Op. 28
!!!ONM: No. 18
!!!OMD: Allegro molto
!!!ODT: 1836///-1839///
!!!PDT: 1839///
!!!ENC: Craig Stuart Sapp
!!!AIN: piano
!!!EEV: 2 April 2001
!!!YEC: Copyright 2001 by Craig Stuart Sapp
!!!YEN: United States of America
**kern	**kern
*Ipiano	*Ipiano
*lh	*rh
*clefF4	*clefG2
*k[b-e-a-d-]	*k[b-e-a-d-]
*f:	*f:
*M2/2	*M2/2
*MM124	*MM124
2r	16c
.	16d-
.	16An
.	16B-
.	16G
.	16B-
.	16g
.	16f
*	*^
8r	8r	4.f
8CC 8D-	8G 8B-	.
8CC' 8D-'	8G 8B-	.
8r	8r	8en
*	*v	*v
=2	=2
2r	16c
.	16d-
.	16An
.	16B-
.	16G
.	16B-
.	16g
.	16f
*	*^
8r	8r	4.f
8CC 8D-	8G 8B-	.
8CC' 8D-'	8G 8B-	.
8r	8r	8en
*	*v	*v
=3	=3
2r	16c
.	16d-
.	16An
.	16B-
.	16G
.	16B-
.	16g
.	16f
8r	16d#
.	16en
16B-	16b-
16A-	16a-
16F#	16f#
16G	16g
16d-	16dd-
16c	16cc
=4	=4
16An	16an
16B-	16b-
16dd-	16ddd-
16g	16gg
16cc	16ccc
16b-	16bb-
16a-	16aa-
16g	16gg
16f	16ff
16en	16een
16g	16gg
16B-	16b-
20Bn	20bn
20c	20cc
20d-	20dd-
20G	20g
20c	20cc
=5	=5
16B-	16b-
16An	16an
8r	16f
.	16g-
4r	16dn
.	16e-
.	16cc
.	16b-
*	*^
8r	8r	4.b-
8FF 8F#	8c 8e-	.
8FF' 8F#'	8c 8e-	.
8r	8r	8a
*	*v	*v
=6	=6
2r	16f
.	16g-
.	16dn
.	16e-
.	16c
.	16e-
.	16cc
.	16b-
*	*^
8r	8r	4.b-
8FF 8G-	8c 8e-	.
8FF' 8G-'	8c 8e-	.
8r	8r	8an
*	*v	*v
=7	=7
4r	16f
.	16g-
.	16dn
.	16e-
8r	16c
.	16e-
16c	16cc
16B-	16b-
16G#	16g#
16An	16an
16g-	16gg-
16f	16ff
16dn	16ddn
16e-	16ee-
16dd-	16ddd-
16cc	16ccc
=8	=8
22b-	22bb-
22an	22aan
22ee-	22eee-
22en	22een
22f	22ff
22g-	22gg-
22c	22cc
22d-	22dd-
22f	22ff
22e-	22ee-
22d-	22dd-
22c	22cc
22B-	22b-
22An	22an
22c	22cc
22En	22en
22F	22f
22G-	22g-
22C	22c
22F	22f
22E-	22e-
22D-	22d-
=9	=9
8C	8c
8BB-	8B-
8BBB- 8BB-	8F 8G 8B- 8d- 8f
8r	8r
16d-	16dd-
16G	16g
16A-	16a-
16An	16an
16c	16cc
16B-	16b-
16A-	16a-
16G	16g
=10	=10
16F	16f
16En	16en
8r	8r
8BBB- 8BB-	8G 8B- 8d- 8e
8r	8r
16a-	16aa-
16B-	16b-
16a-	16aa-
16g	16gg
16en	16een
16d-	16dd-
16B-	16b-
16G	16g
=11	=11
16En	16en
16F	16f
8r	8r
8AAA- 8AA-	8F 8c 8f
8r	8r
16cc	16ccc
16f	16ff
16f#	16ff#
16g	16gg
20b-	20bb-
20a-	20aa-
20fn	20ffn
20d-	20dd-
20c	20cc
=12	=12
16c	16cc
16Bn	16bn
8r	8r
8FFF 8FF	8A- 8Bn 8dn 8a-
8r	8r
34aa-	34aaa-
34ddn	34dddn
34ee-	34eee-
34een	34eeen
34gg	34ggg
34ff	34fff
34dd	34ddd
34bn	34bbn
34g	34gg
34a-	34aa-
34f	34ff
34dn	34ddn
34Bn	34bn
34G	34g
34A-	34a-
34F	34f
34Dn	34dn
=13	=13
16BBn	16Bn
16C	16c
16F	16f
16E-	16e-
8EE- 8AA- 8E-	8c 8e- 8a- 8cc
8r	8r
12E-- 12e--	12ee-- 12eee--
12D- 12d-	12dd- 12ddd-
12C 12c	12ccc 12ccc
12C 12c	12cc 12ccc
12C 12c	12cc 12ccc
12C 12c	12cc 12ccc
=14	=14
16BBn	16Bn
16C	16c
16F	16f
16En	16en
8EEn 8C 8E	8c 8e 8a- 8cc
8r	8r
12E-- 12e--	12ee-- 12eee--
12D- 12d-	12dd- 12ddd-
12C 12c	12cc 12ccc
16C 16c	16cc 16ccc
16C 16c	16cc 16ccc
16C 16c	16cc 16ccc
16C 16c	16cc 16ccc
=15	=15
16BBn	16Bn
16C	16c
16G	16g
16F	16f
8FF' 8C' 8A-'	8c' 8f' 8a-' 8cc'
8r	8r
16BB	16B
16C	16c
16B-	16b-
16A-	16a-
8GG-' 8AA-' 8G-'	8c' 8e-' 8a-' 8cc'
8r	8r
=16	=16
8GG-' 8AA-' 8G-'	8c' 8e-' 8a-' 8cc'
8C^ 8c^	8cc^ 8ccc^
8GGn' 8Gn'	8e' 8b-' 8dd-' 8ee'
8D-^ 8d-^	8dd-^ 8ddd-^
8AA-' 8D-' 8A-'	8f' 8a-' 8dd-' 8ff'
8A-^ 8a-^	8aa-^ 8aaa-^
8BB-' 8D-' 8B-'	8g' 8dd-' 8ff' 8gg'
8G^ 8g^	8gg^ 8ggg^
=17	=17
8CC-' 8C-'	8c-' 8cc-'
8r	8r
4c-:^ 4d-:^ 4f:^ 4dd-:^	8fff [8ffff
.	32ffff]
.	32eeee-
.	32dddd-
.	32aaa-
2r	32fff
.	32eee-
.	32ddd-
.	32aa-
.	32ff
.	32ee-
.	32dd-
.	32a-
.	32f
.	32e-
.	32d-
.	32A-
.	32F
.	32E-
.	32D-
.	32AA-
=18	=18
2FFT	2FFT
24EEEn'	24EEn'
24FFF'	24FF'
24DD-'	24D-'
24CC'	24C'
24GGG'	24GG'
24CC-'	24C-'
24GGG-'	24GG-'
24BBB-'	24BB-'
24FFF'	24FF'
24AAAn'	24AAn'
24FFF'	24FF'
24AAA-'	24AA-'
=19	=19
4CCC'	4CC'
4r	4r
2r	2r
=20	=20
2r	2r
2CC 2GG	2C 2G 2c
=21	=21
1FFF; 1FF;	1C; 1F; 1A-; 1c;
==	==
*-	*-
